X: 147104
T: HIGHLAND QUICKSTEP
%R: quick-step, jig
B: James Kerr "Merry Melodies" v.1 p.47 s.1 #4
Z: 2016 John Chambers <jc:trillian.mit.edu>
M: 6/8
L: 1/8
K: Ador
ua |\
eAe edB | d>BA uA2uB | vG2ve dBd | B>AG uG2ug |\
fed efg | a>^ga ue2uf | g2e dBd | e2A A2 :|
|: ue |\
a>^ga efg | a>^ga ue2uf | g>fg efg | g>fg ue2u^g |\
a>^ga efg | a>^ga e2f | g2e d>Bd | e2A A2 :|

%%sep 1 1 500
%%sep 1 1 500

